public/img/logo.svg

<svg xmlns="http://www.w3.org/2000/svg" viewBox="0 0 745 745"><path d="M72.1 550H146v13.2H49.5v-91.5h22.7V550zm95.4-65.7c14.4-8.5 34.6-13.9 56.6-13.9 22.2 0 42.2 5.4 56.8 13.9 14.1 8.5 23.3 20.2 23.3 33.1s-9.2 24.6-23.3 33.1c-14.6 8.6-34.6 13.9-56.8 13.9-22 0-42.2-5.2-56.6-13.9-14.1-8.5-23.3-20.2-23.3-33.1s9.2-24.6 23.3-33.1zm97.2 9.4c-10.5-6.1-25.1-10-40.6-10s-29.9 3.8-40.2 10-16.8 14.4-16.8 23.7 6.5 17.7 16.8 23.7 24.7 10 40.2 10 30.1-3.8 40.6-10c10.1-6 16.6-14.3 16.6-23.7s-6.5-17.7-16.6-23.7zm87.9 70V485H305v-13.4h117.6V485h-47.4v78.7h-22.6zm89.8-28v-64h22.9v64.2c0 10.1 18.6 15.1 35.2 15.1 16.4 0 35-5.1 35-15.2v-64h22.9V536c0 18.6-31 28.3-57.9 28.3-27.6-.1-58.1-9.8-58.1-28.6zm226.4-40.4c-3.1-8.2-18.4-11.8-32.1-11.6-10.5.1-22.2 2.2-28.5 6.9-3.1 2.4-4.3 5.4-3.8 8.5 1.1 9.4 18.9 10.6 35.7 11.5 21.5 1.6 48.2 4.8 54.3 19.5.7 1.9 1.1 4 1.1 6 0 17.7-30.1 27.9-58.3 27.9-24.2 0-53.6-8.4-56.5-24.8l-.2-2.5 22.9-.3.2 2v-.4c1.6 8.5 19.3 13 33.9 13 16.8 0 35.2-5.5 35.2-14.9 0-1.1-.3-2.1-.7-3.1-2.7-7-18.8-8.1-34.6-9-24.5-1.4-53.2-4.6-55.7-23.7v.1c-.9-6.1 1.8-12.3 8.5-17.4 10.5-8 29.4-12.2 47.6-12.2 24.2 0 49.4 7.3 53.4 24.1l-22.4.4z" fill="#cbccce"/><path d="M372.5 253.1c3.1-3.3 6.3-6.5 9.5-9.6 8.7-8.2 18-15.9 27.7-22.9-11.5-14.2-23.9-27.5-37.1-40.1-13.3 12.6-25.7 26-37.2 40.2 9.7 6.9 18.8 14.5 27.5 22.7 3.3 3.2 6.5 6.4 9.6 9.7h0zm248 89.1c14.5 5.8 28.5 12.9 41.7 21.3-26.7 48.4-59.5 84.9-109.3 89 34.8-24.2 55.4-65.2 67.6-110.3h0zm-69.6-124.5c15.5 43 15.6 91.1 3.1 135-11.5 40.1-34.8 79.5-68.9 104.4 78.2-4.9 129.8-73.6 135.2-253l-69.4 13.6zm-29.8-22.1c62.3 106.6-3.4 269.4-113 269.4-54.9 0-68.7-57.9-68.7-97.7.1-93.6 115.8-171.7 181.7-171.7z" fill="#7cb342"/><path d="M224 195.6c39.6 0 97.1 28.2 136.8 71-17.4 21.5-30.8 46.4-36.3 73.4-1.9 9-2.8 18.1-2.8 27.3 0 34.8 9.4 72.7 33.2 95.3-5.9 1.6-11.9 2.4-18 2.4-109.6 0-175.3-162.8-112.9-269.4h0zm-99.5 146.6C110 348 96 355.1 82.8 363.5c26.7 48.4 59.5 84.9 109.3 89-34.7-24.2-55.3-65.2-67.6-110.3h0zm69.6-124.5L124.8 204c5.3 179.5 56.9 248.1 135.2 253-34.1-24.9-57.4-64.3-68.9-104.4-12.6-43.8-12.5-91.9 3-134.9z" fill="#4f5b62"/></svg>

<?xml version="1.0" encoding="utf-8"?>
<!-- Generator: Adobe Illustrator 24.0.1, SVG Export Plug-In . SVG Version: 6.00 Build 0)  -->
<svg version="1.1" id="LogoSVG" xmlns="http://www.w3.org/2000/svg" xmlns:xlink="http://www.w3.org/1999/xlink" x="0px" y="0px"
	 viewBox="0 0 745 745" style="enable-background:new 0 0 745 745;" xml:space="preserve">
<style type="text/css">
	.st0{fill:#CBCCCE;}
	.st1{fill:#7CB342;}
	.st2{fill:#4F5B62;}
</style>
<g>
	<path class="st0" d="M72.1,550H146v13.2H49.5v-91.5h22.7V550z"/>
	<path class="st0" d="M167.5,484.3c14.4-8.5,34.6-13.9,56.6-13.9c22.2,0,42.2,5.4,56.8,13.9c14.1,8.5,23.3,20.2,23.3,33.1
		s-9.2,24.6-23.3,33.1c-14.6,8.6-34.6,13.9-56.8,13.9c-22,0-42.2-5.2-56.6-13.9c-14.1-8.5-23.3-20.2-23.3-33.1
		C144.2,504.5,153.4,492.8,167.5,484.3z M264.7,493.7c-10.5-6.1-25.1-10-40.6-10s-29.9,3.8-40.2,10s-16.8,14.4-16.8,23.7
		c0,9.3,6.5,17.7,16.8,23.7c10.3,6,24.7,10,40.2,10s30.1-3.8,40.6-10c10.1-6,16.6-14.3,16.6-23.7C281.3,508,274.8,499.7,264.7,493.7
		z"/>
	<path class="st0" d="M352.6,563.7v-78.7h-47.6v-13.4h117.6v13.4h-47.4v78.7H352.6z"/>
	<path class="st0" d="M442.4,535.7v-64h22.9v64.2c0,10.1,18.6,15.1,35.2,15.1c16.4,0,35-5.1,35-15.2v-64h22.9v64.2
		c0,18.6-31,28.3-57.9,28.3C472.9,564.2,442.4,554.5,442.4,535.7z"/>
	<path class="st0" d="M668.8,495.3c-3.1-8.2-18.4-11.8-32.1-11.6c-10.5,0.1-22.2,2.2-28.5,6.9c-3.1,2.4-4.3,5.4-3.8,8.5
		c1.1,9.4,18.9,10.6,35.7,11.5c21.5,1.6,48.2,4.8,54.3,19.5c0.7,1.9,1.1,4,1.1,6c0,17.7-30.1,27.9-58.3,27.9
		c-24.2,0-53.6-8.4-56.5-24.8l-0.2-2.5l22.9-0.3l0.2,2V538c1.6,8.5,19.3,13,33.9,13c16.8,0,35.2-5.5,35.2-14.9
		c0-1.1-0.3-2.1-0.7-3.1c-2.7-7-18.8-8.1-34.6-9c-24.5-1.4-53.2-4.6-55.7-23.7v0.1c-0.9-6.1,1.8-12.3,8.5-17.4
		c10.5-8,29.4-12.2,47.6-12.2c24.2,0,49.4,7.3,53.4,24.1L668.8,495.3z"/>
	<path class="st1" d="M372.5,253.1c3.1-3.3,6.3-6.5,9.5-9.6c8.7-8.2,18-15.9,27.7-22.9c-11.5-14.2-23.9-27.5-37.1-40.1
		c-13.3,12.6-25.7,26-37.2,40.2c9.7,6.9,18.8,14.5,27.5,22.7C366.2,246.6,369.4,249.8,372.5,253.1L372.5,253.1z M620.5,342.2
		c14.5,5.8,28.5,12.9,41.7,21.3c-26.7,48.4-59.5,84.9-109.3,89C587.7,428.3,608.3,387.3,620.5,342.2L620.5,342.2z M550.9,217.7
		c15.5,43,15.6,91.1,3.1,135c-11.5,40.1-34.8,79.5-68.9,104.4c78.2-4.9,129.8-73.6,135.2-253L550.9,217.7z M521.1,195.6
		C583.4,302.2,517.7,465,408.1,465c-54.9,0-68.7-57.9-68.7-97.7C339.5,273.7,455.2,195.6,521.1,195.6z"/>
	<path class="st2" d="M224,195.6c39.6,0,97.1,28.2,136.8,71C343.4,288.1,330,313,324.5,340c-1.9,9-2.8,18.1-2.8,27.3
		c0,34.8,9.4,72.7,33.2,95.3c-5.9,1.6-11.9,2.4-18,2.4C227.3,465,161.6,302.2,224,195.6L224,195.6z M124.5,342.2
		c-14.5,5.8-28.5,12.9-41.7,21.3c26.7,48.4,59.5,84.9,109.3,89C157.4,428.3,136.8,387.3,124.5,342.2L124.5,342.2z M194.1,217.7
		L124.8,204c5.3,179.5,56.9,248.1,135.2,253c-34.1-24.9-57.4-64.3-68.9-104.4C178.5,308.8,178.6,260.7,194.1,217.7z"/>
</g>
</svg>
